icons/circle/48/ristretto.svg

<svg xmlns="http://www.w3.org/2000/svg" viewBox="0 0 48 48">
 <defs>
  <linearGradient id="linearGradient3764" x1="1" x2="47" gradientUnits="userSpaceOnUse" gradientTransform="matrix(0,-1,1,0,-1.5e-6,47.999998)">
   <stop style="stop-color:#58b1b6;stop-opacity:1"/>
   <stop offset="1" style="stop-color:#66b6bc;stop-opacity:1"/>
  </linearGradient>
 </defs>
 <g>
  <path d="m 36.31 5 c 5.859 4.062 9.688 10.831 9.688 18.5 c 0 12.426 -10.07 22.5 -22.5 22.5 c -7.669 0 -14.438 -3.828 -18.5 -9.688 c 1.037 1.822 2.306 3.499 3.781 4.969 c 4.085 3.712 9.514 5.969 15.469 5.969 c 12.703 0 23 -10.298 23 -23 c 0 -5.954 -2.256 -11.384 -5.969 -15.469 c -1.469 -1.475 -3.147 -2.744 -4.969 -3.781 z m 4.969 3.781 c 3.854 4.113 6.219 9.637 6.219 15.719 c 0 12.703 -10.297 23 -23 23 c -6.081 0 -11.606 -2.364 -15.719 -6.219 c 4.16 4.144 9.883 6.719 16.219 6.719 c 12.703 0 23 -10.298 23 -23 c 0 -6.335 -2.575 -12.06 -6.719 -16.219 z" style="opacity:0.05"/>
  <path d="m 41.28 8.781 c 3.712 4.085 5.969 9.514 5.969 15.469 c 0 12.703 -10.297 23 -23 23 c -5.954 0 -11.384 -2.256 -15.469 -5.969 c 4.113 3.854 9.637 6.219 15.719 6.219 c 12.703 0 23 -10.298 23 -23 c 0 -6.081 -2.364 -11.606 -6.219 -15.719 z" style="opacity:0.1"/>
  <path d="m 31.25 2.375 c 8.615 3.154 14.75 11.417 14.75 21.13 c 0 12.426 -10.07 22.5 -22.5 22.5 c -9.708 0 -17.971 -6.135 -21.12 -14.75 a 23 23 0 0 0 44.875 -7 a 23 23 0 0 0 -16 -21.875 z" style="opacity:0.2"/>
 </g>
 <g>
  <path d="m 24 1 c 12.703 0 23 10.297 23 23 c 0 12.703 -10.297 23 -23 23 -12.703 0 -23 -10.297 -23 -23 0 -12.703 10.297 -23 23 -23 z" style="fill:url(#linearGradient3764);fill-opacity:1"/>
 </g>
 <g>
  <g>
   <g transform="translate(1,1)">
    <g style="opacity:0.1">
     <!-- color: #66b6bc -->
    </g>
   </g>
  </g>
 </g>
 <g>
  <g>
   <!-- color: #66b6bc -->
   <g>
    <path d="m 16 13 c -0.554 0 -1 0.446 -1 1 l 0 22 c 0 0.554 0.446 1 1 1 l 18 0 c 0.554 0 1 -0.446 1 -1 l 0 -22 c 0 -0.554 -0.446 -1 -1 -1 l -18 0 z m 0 1 18 0 0 17.82 l -5 -8.82 -3.377 4.643 -3.623 -6.643 -6 11 0 -18 m 13.5 2 c -1.383 0 -2.5 1.121 -2.5 2.5 0 1.379 1.117 2.5 2.5 2.5 1.379 0 2.5 -1.121 2.5 -2.5 0 -1.379 -1.121 -2.5 -2.5 -2.5" style="fill:#000;opacity:0.1;fill-opacity:1;stroke:none;fill-rule:nonzero"/>
   </g>
  </g>
 </g>
 <g>
  <path d="m 40.03 7.531 c 3.712 4.084 5.969 9.514 5.969 15.469 0 12.703 -10.297 23 -23 23 c -5.954 0 -11.384 -2.256 -15.469 -5.969 4.178 4.291 10.01 6.969 16.469 6.969 c 12.703 0 23 -10.298 23 -23 0 -6.462 -2.677 -12.291 -6.969 -16.469 z" style="opacity:0.1"/>
 </g>
 <g>
  <path d="M 28.5 15 C 27.117 15 26 16.121 26 17.5 C 26 18.879 27.117 20 28.5 20 C 29.879 20 31 18.879 31 17.5 C 31 16.121 29.879 15 28.5 15 z " style="fill:#edb14c;fill-opacity:1;stroke:none;fill-rule:nonzero"/>
  <path d="m 28 22 l -4 5.5 l 3 4.5 l 6.102 -1 l -5.102 -9 z" style="fill:#212c3c;fill-opacity:1;stroke:none;fill-rule:nonzero"/>
  <path d="m 21 20 l -6 11 l 6 1 l 6 -1 l -6 -11 z" style="fill:#3c424c;fill-opacity:1;stroke:none;fill-rule:nonzero"/>
  <path d="m 15 12 c -0.554 0 -1 0.446 -1 1 l 0 22 c 0 0.554 0.446 1 1 1 l 18 0 c 0.554 0 1 -0.446 1 -1 l 0 -22 c 0 -0.554 -0.446 -1 -1 -1 l -18 0 z m 0 1 18 0 0 18 -18 0 0 -18 z" style="fill:#f9f9f9;opacity:1;fill-opacity:1;stroke:none"/>
 </g>
</svg>

<svg xmlns="http://www.w3.org/2000/svg" viewBox="0 0 48 48">
  <defs>
    <linearGradient id="a" x1="1" x2="47" gradientUnits="userSpaceOnUse" gradientTransform="rotate(-90 24 24)">
      <stop stop-color="#58b1b6"/>
      <stop offset="1" stop-color="#66b6bc"/>
    </linearGradient>
  </defs>
  <path d="M36.31 5c5.859 4.062 9.688 10.831 9.688 18.5 0 12.426-10.07 22.5-22.5 22.5-7.669 0-14.438-3.828-18.5-9.688a23.24 23.24 0 0 0 3.781 4.969 22.923 22.923 0 0 0 15.469 5.969c12.703 0 23-10.298 23-23a22.92 22.92 0 0 0-5.969-15.469A23.216 23.216 0 0 0 36.31 5zm4.969 3.781A22.911 22.911 0 0 1 47.498 24.5c0 12.703-10.297 23-23 23a22.909 22.909 0 0 1-15.719-6.219C12.939 45.425 18.662 48 24.998 48c12.703 0 23-10.298 23-23 0-6.335-2.575-12.06-6.719-16.219z" opacity=".05"/>
  <path d="M41.28 8.781a22.923 22.923 0 0 1 5.969 15.469c0 12.703-10.297 23-23 23A22.92 22.92 0 0 1 8.78 41.281 22.911 22.911 0 0 0 24.499 47.5c12.703 0 23-10.298 23-23A22.909 22.909 0 0 0 41.28 8.781z" opacity=".1"/>
  <path d="M31.25 2.375C39.865 5.529 46 13.792 46 23.505c0 12.426-10.07 22.5-22.5 22.5-9.708 0-17.971-6.135-21.12-14.75a23 23 0 0 0 44.875-7 23 23 0 0 0-16-21.875z" opacity=".2"/>
  <path d="M24 1c12.703 0 23 10.297 23 23S36.703 47 24 47 1 36.703 1 24 11.297 1 24 1z" fill="url(#a)"/>
  <path d="M16 13c-.554 0-1 .446-1 1v22c0 .554.446 1 1 1h18c.554 0 1-.446 1-1V14c0-.554-.446-1-1-1H16zm0 1h18v17.82L29 23l-3.377 4.643L22 21l-6 11V14m13.5 2a2.5 2.5 0 1 0 0 5 2.5 2.5 0 0 0 0-5" opacity=".1"/>
  <g>
    <path d="M40.03 7.531A22.922 22.922 0 0 1 45.999 23c0 12.703-10.297 23-23 23A22.92 22.92 0 0 1 7.53 40.031C11.708 44.322 17.54 47 23.999 47c12.703 0 23-10.298 23-23 0-6.462-2.677-12.291-6.969-16.469z" opacity=".1"/>
  </g>
  <g>
    <path d="M28.5 15a2.5 2.5 0 1 0 0 5 2.5 2.5 0 0 0 0-5z" fill="#edb14c"/>
    <path d="M28 22l-4 5.5 3 4.5 6.102-1L28 22z" fill="#212c3c"/>
    <path d="M21 20l-6 11 6 1 6-1-6-11z" fill="#3c424c"/>
    <path d="M15 12c-.554 0-1 .446-1 1v22c0 .554.446 1 1 1h18c.554 0 1-.446 1-1V13c0-.554-.446-1-1-1H15zm0 1h18v18H15V13z" fill="#f9f9f9"/>
  </g>
</svg>
